release/img/icons/Phone.svg

<svg width="22" height="23" viewBox="0 0 22 23" fill="none" xmlns="http://www.w3.org/2000/svg">
<path d="M21.2008 1.10554L16.7321 0.0274383C16.2466 -0.0893561 15.7482 0.175677 15.5505 0.651839L13.4881 5.68298C13.3076 6.12321 13.4279 6.6398 13.7845 6.94077L16.3884 9.16885C14.8416 12.6143 12.1389 15.4802 8.77449 17.1288L6.64328 14.4066C6.3511 14.0338 5.86127 13.908 5.44018 14.0967L0.627779 16.2529C0.168022 16.464 -0.0854882 16.9851 0.0262283 17.4927L1.05746 22.1645C1.16488 22.6496 1.57737 23 2.06291 23C13.067 23 22 13.6789 22 2.15669C22 1.65358 21.6691 1.21784 21.2008 1.10554Z" fill="white"/>
</svg>

<svg width="22" height="23" fill="none" xmlns="http://www.w3.org/2000/svg"><path d="M21.2 1.106L16.733.027a1.027 1.027 0 00-1.181.625l-2.063 5.031c-.18.44-.06.957.296 1.258l2.604 2.228c-1.546 3.445-4.25 6.311-7.614 7.96l-2.13-2.722a1.001 1.001 0 00-1.204-.31L.628 16.253c-.46.211-.713.732-.602 1.24l1.031 4.672c.108.485.52.835 1.006.835C13.067 23 22 13.679 22 2.157c0-.503-.33-.94-.8-1.051z" fill="#fff"/></svg>
